web/ui/src/assets/svgs/error/403.svg

<svg height="245" viewBox="0 0 391 245" width="391" xmlns="http://www.w3.org/2000/svg" xmlns:xlink="http://www.w3.org/1999/xlink"><mask id="a" fill="#fff"><path d="m0 0h120.544696v125.591481h-120.544696z" fill="#fff" fill-rule="evenodd"/></mask><g fill="none" fill-rule="evenodd"><g fill-rule="nonzero"><path d="m18.7208445 216.431254c49.1191051 53.278409 228.0348905 10.252703 275.7095495-12.047905 83.037365-38.841598 40.838104 59.548297 83.551747 8.052581 31.635262-38.138592 3.691804-136.3939287-63.011137-181.9392656-58.087743-39.6627404-123.131401-39.22796084-199.810825-6.8693232-81.66618 34.463784-149.3007344 135.4672378-96.4393345 192.8039128z" fill="#deecfd" opacity=".20062156744"/><path d="m145 140.324742c-2.485714 0-4.142857 1.65088-4.142857 4.127199v17.334233c0 1.650879-1.657143 3.301758-2.485714 3.301758h-30.657143v-123.815949c0-1.6508792-.828572-3.3017587-2.485715-4.1271982-5.7999996-1.6508793-10.7714281-4.1271983-15.7428567-5.7780777-11.5999999-4.952638-23.2000001-9.0798362-34.8-13.2070345l-2.4857143-.8254397c-9.1142856-3.3017587-16.5714285-6.6035172-24.0285714-9.07983622h109.3714284c1.657143 0 3.314286 1.65087926 3.314286 3.30175852v33.8430263c0 2.4763189 1.657143 4.1271982 4.142857 4.1271982 2.485715 0 4.142857-1.6508793 4.142857-4.1271982v-33.8430263c0-6.60351723-4.971428-11.5561552-11.6-11.5561552h-133.39999992-.8285713c-.82857149 0-1.65714299.82543973-2.48571429 1.65087926v.82543973c-.82857149.82543972-.82857149.82543972-.82857149 1.65087925v146.92825976c0 6.603517 4.97142857 12.381595 10.7714286 14.857914l83.6857143 31.366707c7.4571431 2.476319 13.2571431-1.650879 13.2571431-9.079836v-14.857914h30.657143c5.8 0 10.771428-4.952638 10.771428-11.556155v-17.334233c0-2.476319-1.657143-4.127198-4.142857-4.127199zm-45.5714286 47.875501c0 1.650879-.8285715 1.650879-2.4857143 1.650879l-83.6857142-31.366707c-2.4857143-1.650879-4.97142855-4.952638-4.97142855-7.428957v-141.15018206c9.11428565 3.30175876 23.20000005 8.25439666 40.59999985 14.85791396l2.4857143.8254397c15.7428572 5.7780777 32.3142857 12.3815949 48.0571429 18.1596724zm-16.5714285-93.2746818v24.7631898c0 2.476319-1.6571428 4.127198-4.1428573 4.127198-2.4857144 0-4.142857-1.650879-4.142857-4.127198v-24.7631898c0-2.476319 1.6571428-4.1271985 4.142857-4.1271985 2.4857143 0 4.1428573 1.6508793 4.1428573 4.1271985zm82.8571431-11.5561554v-4.952638c0-11.5561552-9.114286-20.6359914-20.714286-20.6359914s-20.714286 9.0798362-20.714286 20.6359914v4.952638c-4.971428 1.6508792-8.285714 6.6035172-8.285714 11.5561554v24.7631898c0 6.603517 5.8 12.381595 12.428571 12.381595h33.142858c6.628571 0 12.428571-5.778078 12.428571-12.381595v-24.7631898c0-5.7780777-3.314286-9.905276-8.285714-11.5561554zm-33.142857-4.952638c0-6.6035172 5.8-12.3815949 12.428571-12.3815949s12.428571 5.7780777 12.428571 12.3815949v4.1271984h-24.857142zm33.142857 41.2719832c0 2.476319-1.657143 4.127198-4.142857 4.127198h-33.142858c-2.485714 0-4.142857-1.650879-4.142857-4.127198v-24.7631898c0-2.476319 1.657143-4.1271985 4.142857-4.1271985h33.142858c2.485714 0 4.142857 1.6508793 4.142857 4.1271985z" fill="#d9ebff" transform="translate(109 29)"/><g fill="#6fb3ff" transform="translate(38.528 67.328)"><path d="m24.024 75.6 19.32-30.912c3.528-6.72 6.888-13.608 9.912-20.16h.672c-.336 7.224-1.008 18.48-1.008 25.704v25.368zm66.696 0h-14.784v-73.248h-29.568l-46.368 75.264v16.8h52.92v32.256h23.016v-32.256h14.784z"/><path d="m274.408 129.024c23.688 0 43.68-13.272 43.68-36.12 0-16.296-10.752-26.712-24.864-30.576v-.84c13.272-5.208 20.832-14.952 20.832-28.392 0-21.336-16.296-33.096-40.32-33.096-14.616 0-26.544 5.88-37.296 15.288l12.6 15.12c7.392-6.72 14.616-10.92 23.52-11.088 10.584.168 16.632 5.88 16.632 15.624 0 11.088-7.392 18.984-30.24 18.984v17.808c27.048 0 34.272 7.56 34.272 19.824 0 11.088-8.568 17.304-21.168 17.304-11.256 0-20.328-5.544-27.72-12.768l-11.592 15.624c8.736 9.912 22.008 17.304 41.664 17.304z"/></g></g><path d="m41.2653043 106.703538c-12.8250434-.259436-17.6047826-18.6348264-17.6047826-43.2735215 0-24.638695 4.189087-45.2470482 17.6363479-45.2470482 12.8283913 0 18.9816956 16.6402376 18.9816956 43.9781128 0 26.13691-5.0705217 44.8243889-19.0132609 44.5424569m73.0619997-44.8837435h-42.565217c-.3070435 0-.6064348.0296771-.9010435.0727568-2.7509565-.641887-4.8022174-3.1055651-4.8022174-6.0546073 0-3.4363211 2.7834782-6.2226179 6.2173913-6.2226179h10.3065217c-.0086087-.0813727-.0196087-.1598734-.0282174-.2407675h4.5119131c3.4334348 0 6.2173913-2.7858182 6.2173913-6.2226179 0-3.4363211-2.7839565-6.2226179-6.2173913-6.2226179h-12.2841305c-2.6074782-.7395342-4.5200434-3.1347635-4.5200434-5.9818505 0-3.4363211 2.7834782-6.2226179 6.2173913-6.2226179h.0674348c-.0358696-.0813727-.073174-.1598735-.108087-.2407675h37.888304c3.433435 0 6.217392-2.7858182 6.217392-6.2226179 0-3.4363211-2.783957-6.222618-6.217392-6.222618h-45.5849562c-6.7726521-7.76965644-15.8160869-12.038851-26.9131739-12.038851-27.8859565 0-41.8291739 28.3263141-41.8291739 63.0073572 0 34.681043 15.2273478 62.5842188 41.8291739 62.5842188 3.5486957 0 6.8855218-.462867 10.0071304-1.346h31.9698261c3.4339131 0 6.2173913-2.785818 6.2173913-6.222618 0-3.436321-2.7834782-6.222618-6.2173913-6.222618h-13.9216956c.0196087-.02489.0401739-.049302.0597826-.074671-2.8666957-.553334-5.0336957-3.075888-5.0336957-6.106782 0-3.436321 2.7839566-6.2226175 6.2173913-6.2226175h5.8453044c.0325217-.079458.0636087-.1613094.0956522-.2407674h26.7366954c3.433435 0 6.217392-2.7858182 6.217392-6.222618 0-3.436321-2.783957-6.2226179-6.217392-6.2226179h-27.4033911c-2.6074782-.7395342-4.5200435-3.1347634-4.5200435-5.9818505 0-3.4363211 2.7834783-6.2226179 6.2173913-6.2226179h4.6219131c.0071739-.079458.0119565-.1613094.0191304-.2407675h31.5867388c3.433435 0 6.217392-2.7858181 6.217392-6.2226179 0-3.4363211-2.783957-6.2226179-6.217392-6.2226179" fill="#6fb3ff" mask="url(#a)" transform="translate(139.334113 69.296867)"/></g></svg>

<?xml version="1.0" encoding="UTF-8"?>
<svg width="391px" height="245px" viewBox="0 0 391 245" version="1.1" xmlns="http://www.w3.org/2000/svg" xmlns:xlink="http://www.w3.org/1999/xlink">
    <title>bg_404</title>
    <defs>
        <polygon id="path-1" points="0 0 120.544696 0 120.544696 125.591481 0 125.591481"></polygon>
    </defs>
    <g id="页面-1" stroke="none" stroke-width="1" fill="none" fill-rule="evenodd">
        <g id="建木-403" transform="translate(-755.000000, -333.000000)">
            <g id="bg_404" transform="translate(755.000000, 333.000000)">
                <g id="bg备份-2" opacity="0.367278343" fill="#DEECFD" fill-rule="nonzero">
                    <path d="M18.7208445,216.431254 C67.8399496,269.709663 246.755735,226.683957 294.430394,204.383349 C377.467759,165.541751 335.268498,263.931646 377.982141,212.43593 C409.617403,174.297338 381.673945,76.0420013 314.971004,30.4966644 C256.883261,-9.166076 191.839603,-8.73129644 115.160179,23.6273412 C33.493999,58.0911252 -34.1405554,159.094579 18.7208445,216.431254 Z" id="Shape" opacity="0.546239099"></path>
                </g>
                <g id="密码锁" transform="translate(109.000000, 29.000000)" fill="#D9EBFF" fill-rule="nonzero">
                    <path d="M145,140.324742 C142.514286,140.324742 140.857143,141.975622 140.857143,144.451941 L140.857143,161.786174 C140.857143,163.437053 139.2,165.087932 138.371429,165.087932 L107.714286,165.087932 L107.714286,41.271983 C107.714286,39.6211038 106.885714,37.9702243 105.228571,37.1447848 C99.4285714,35.4939055 94.4571429,33.0175865 89.4857143,31.3667071 C77.8857144,26.4140691 66.2857142,22.2868709 54.6857143,18.1596726 L52.2,17.3342329 C43.0857144,14.0324742 35.6285715,10.7307157 28.1714286,8.25439668 L137.542857,8.25439668 C139.2,8.25439668 140.857143,9.90527594 140.857143,11.5561552 L140.857143,45.3991815 C140.857143,47.8755004 142.514286,49.5263797 145,49.5263797 C147.485715,49.5263797 149.142857,47.8755004 149.142857,45.3991815 L149.142857,11.5561552 C149.142857,4.95263797 144.171429,0 137.542857,0 L4.14285708,0 L3.31428578,0 C2.48571429,0 1.65714279,0.825439726 0.828571493,1.65087926 L0.828571493,2.47631899 C0,3.30175871 0,3.30175871 0,4.12719824 L0,151.055458 C0,157.658975 4.97142857,163.437053 10.7714286,165.913372 L94.4571429,197.280079 C101.914286,199.756398 107.714286,195.6292 107.714286,188.200243 L107.714286,173.342329 L138.371429,173.342329 C144.171429,173.342329 149.142857,168.389691 149.142857,161.786174 L149.142857,144.451941 C149.142857,141.975622 147.485714,140.324743 145,140.324742 Z M99.4285714,188.200243 C99.4285714,189.851122 98.5999999,189.851122 96.9428571,189.851122 L13.2571429,158.484415 C10.7714286,156.833536 8.28571435,153.531777 8.28571435,151.055458 L8.28571435,9.90527594 C17.4,13.2070347 31.4857144,18.1596726 48.8857142,24.7631899 L51.3714285,25.5886296 C67.1142857,31.3667073 83.6857142,37.9702245 99.4285714,43.748302 L99.4285714,188.200243 Z M82.8571429,94.9255612 L82.8571429,119.688751 C82.8571429,122.16507 81.2000001,123.815949 78.7142856,123.815949 C76.2285712,123.815949 74.5714286,122.16507 74.5714286,119.688751 L74.5714286,94.9255612 C74.5714286,92.4492422 76.2285714,90.7983627 78.7142856,90.7983627 C81.1999999,90.7983627 82.8571429,92.449242 82.8571429,94.9255612 Z M165.714286,83.3694058 L165.714286,78.4167678 C165.714286,66.8606126 156.6,57.7807764 145,57.7807764 C133.4,57.7807764 124.285714,66.8606126 124.285714,78.4167678 L124.285714,83.3694058 C119.314286,85.020285 116,89.972923 116,94.9255612 L116,119.688751 C116,126.292268 121.8,132.070346 128.428571,132.070346 L161.571429,132.070346 C168.2,132.070346 174,126.292268 174,119.688751 L174,94.9255612 C174,89.1474835 170.685714,85.0202852 165.714286,83.3694058 Z M132.571429,78.4167678 C132.571429,71.8132506 138.371429,66.0351729 145,66.0351729 C151.628571,66.0351729 157.428571,71.8132506 157.428571,78.4167678 L157.428571,82.5439662 L132.571429,82.5439662 L132.571429,78.4167678 Z M165.714286,119.688751 C165.714286,122.16507 164.057143,123.815949 161.571429,123.815949 L128.428571,123.815949 C125.942857,123.815949 124.285714,122.16507 124.285714,119.688751 L124.285714,94.9255612 C124.285714,92.4492422 125.942857,90.7983627 128.428571,90.7983627 L161.571429,90.7983627 C164.057143,90.7983627 165.714286,92.449242 165.714286,94.9255612 L165.714286,119.688751 Z" id="形状"></path>
                </g>
                <g id="编组" transform="translate(38.528000, 67.328000)">
                    <g id="403" fill="#6FB3FF" fill-rule="nonzero">
                        <path d="M24.024,75.6 L43.344,44.688 C46.872,37.968 50.232,31.08 53.256,24.528 L53.928,24.528 C53.592,31.752 52.92,43.008 52.92,50.232 L52.92,75.6 L24.024,75.6 Z M90.72,75.6 L75.936,75.6 L75.936,2.352 L46.368,2.352 L0,77.616 L0,94.416 L52.92,94.416 L52.92,126.672 L75.936,126.672 L75.936,94.416 L90.72,94.416 L90.72,75.6 Z" id="形状"></path>
                        <path d="M274.408,129.024 C298.096,129.024 318.088,115.752 318.088,92.904 C318.088,76.608 307.336,66.192 293.224,62.328 L293.224,61.488 C306.496,56.28 314.056,46.536 314.056,33.096 C314.056,11.76 297.76,0 273.736,0 C259.12,0 247.192,5.88 236.44,15.288 L249.04,30.408 C256.432,23.688 263.656,19.488 272.56,19.32 C283.144,19.488 289.192,25.2 289.192,34.944 C289.192,46.032 281.8,53.928 258.952,53.928 L258.952,71.736 C286,71.736 293.224,79.296 293.224,91.56 C293.224,102.648 284.656,108.864 272.056,108.864 C260.8,108.864 251.728,103.32 244.336,96.096 L232.744,111.72 C241.48,121.632 254.752,129.024 274.408,129.024 Z" id="路径"></path>
                    </g>
                    <g transform="translate(100.806113, 1.968867)">
                        <mask id="mask-2" fill="white">
                            <use xlink:href="#path-1"></use>
                        </mask>
                        <g id="Clip-4"></g>
                        <path d="M41.2653043,106.703538 C28.4402609,106.444102 23.6605217,88.0687116 23.6605217,63.4300165 C23.6605217,38.7913215 27.8496087,18.1829683 41.2968696,18.1829683 C54.1252609,18.1829683 60.2785652,34.8232059 60.2785652,62.1610811 C60.2785652,88.2979911 55.2080435,106.98547 41.2653043,106.703538 M114.327304,61.8197945 L71.762087,61.8197945 C71.4550435,61.8197945 71.1556522,61.8494716 70.8610435,61.8925513 C68.110087,61.2506643 66.0588261,58.7869862 66.0588261,55.837944 C66.0588261,52.4016229 68.8423043,49.6153261 72.2762174,49.6153261 L82.5827391,49.6153261 C82.5741304,49.5339534 82.5631304,49.4554527 82.5545217,49.3745586 L87.0664348,49.3745586 C90.4998696,49.3745586 93.2838261,46.5887404 93.2838261,43.1519407 C93.2838261,39.7156196 90.4998696,36.9293228 87.0664348,36.9293228 L74.7823043,36.9293228 C72.1748261,36.1897886 70.2622609,33.7945593 70.2622609,30.9474723 C70.2622609,27.5111512 73.0457391,24.7248544 76.4796522,24.7248544 L76.547087,24.7248544 C76.5112174,24.6434817 76.473913,24.5649809 76.439,24.4840869 L114.327304,24.4840869 C117.760739,24.4840869 120.544696,21.6982687 120.544696,18.261469 C120.544696,14.8251479 117.760739,12.038851 114.327304,12.038851 L68.7423478,12.038851 C61.9696957,4.26919456 52.9262609,0 41.8291739,0 C13.9432174,0 0,28.3263141 0,63.0073572 C0,97.6884002 15.2273478,125.591576 41.8291739,125.591576 C45.3778696,125.591576 48.7146957,125.128709 51.8363043,124.245576 L83.8061304,124.245576 C87.2400435,124.245576 90.0235217,121.459758 90.0235217,118.022958 C90.0235217,114.586637 87.2400435,111.80034 83.8061304,111.80034 L69.8844348,111.80034 C69.9040435,111.77545 69.9246087,111.751038 69.9442174,111.725669 C67.0775217,111.172335 64.9105217,108.649781 64.9105217,105.618887 C64.9105217,102.182566 67.6944783,99.3962695 71.127913,99.3962695 L76.9732174,99.3962695 C77.0057391,99.3168115 77.0368261,99.2349601 77.0688696,99.1555021 L103.805565,99.1555021 C107.239,99.1555021 110.022957,96.3696839 110.022957,92.9328841 C110.022957,89.4965631 107.239,86.7102662 103.805565,86.7102662 L76.4021739,86.7102662 C73.7946957,85.970732 71.8821304,83.5755028 71.8821304,80.7284157 C71.8821304,77.2920946 74.6656087,74.5057978 78.0995217,74.5057978 L82.7214348,74.5057978 C82.7286087,74.4263398 82.7333913,74.3444884 82.7405652,74.2650303 L114.327304,74.2650303 C117.760739,74.2650303 120.544696,71.4792122 120.544696,68.0424124 C120.544696,64.6060913 117.760739,61.8197945 114.327304,61.8197945" id="Fill-3" fill="#6FB3FF" mask="url(#mask-2)"></path>
                    </g>
                </g>
            </g>
        </g>
    </g>
</svg>
